brandFactory_export/3.Masa/Subir a la nube_3Masa.svg

<?xml version="1.0" encoding="UTF-8"?>
<svg width="24px" height="24px" viewBox="0 0 24 24" version="1.1" xmlns="http://www.w3.org/2000/svg" xmlns:xlink="http://www.w3.org/1999/xlink">
    <title>3.Masa/Subir a la nube_3Masa</title>
    <g id="Symbols" stroke="none" stroke-width="1" fill="none" fill-rule="evenodd">
        <g id="3.Masa/Subir-a-la-nube_3Masa" fill="#5CB615" fill-rule="nonzero">
            <path d="M17.2773109,15.7613445 C17.2134454,15.9058824 17.0722689,16 16.9142857,16.0033613 L14.6890756,16.0033613 C14.5983193,16.0033613 14.5378151,16.0638655 14.5310924,16.1546218 L14.5310924,21.6672269 L9.0789916,21.6571429 L9.0789916,19.3008403 C9.08907563,19.2907563 9.08907563,19.2907563 9.08907563,19.2806723 L9.08907563,16.2554622 C9.08907563,16.1747899 9.02184874,16.1109244 8.94117647,16.1142857 L6.69915966,16.1042017 C6.54117647,16.1042017 6.4,16.0067227 6.34621849,15.8588235 C6.27563025,15.7109244 6.30588235,15.5361345 6.42352941,15.4218487 L11.5865546,9.9697479 C11.6571429,9.89243697 11.7579832,9.8487395 11.8655462,9.8487395 C11.9731092,9.8487395 12.0705882,9.89915966 12.1512605,9.9697479 L17.1966387,15.3210084 C17.3042017,15.4453782 17.3344538,15.6067227 17.2773109,15.7613445 M17.9865546,6.72268908 C16.5747899,2.24537815 11.6672269,2.01344538 10.6823529,2.01344538 C9.40840336,2.01344538 3.12941176,2.3697479 3.00168067,9.32436975 C1.73781513,9.79159664 0,11.0117647 0,14.1478992 C0,17.9731092 2.61512605,19.3445378 5.07563025,19.3445378 L8.09411765,19.3243697 L8.09411765,21.7714286 C8.09411765,22.2789916 8.52773109,22.6857143 9.05210084,22.6857143 L14.5613445,22.6857143 C15.0823529,22.6857143 15.5193277,22.2789916 15.5193277,21.7815126 L15.5193277,19.2840336 L17.4151261,19.2739496 C18.4504202,19.2739496 23.6235294,18.9680672 23.6235294,12.9781513 C23.6235294,7.74117647 19.6840336,6.85714286 17.9865546,6.72268908" id="Subir-a-la-nube_3Masa"></path>
        </g>
    </g>
</svg>

<svg width="24" height="24" viewBox="0 0 24 24" xmlns="http://www.w3.org/2000/svg"><path d="M17.277 15.761a.406.406 0 01-.363.242H14.69c-.09 0-.151.06-.158.152v5.512l-5.452-.01v-2.356c.01-.01.01-.01.01-.02v-3.026a.141.141 0 00-.148-.14l-2.242-.01a.374.374 0 01-.353-.246.38.38 0 01.078-.437l5.163-5.452a.376.376 0 01.279-.121.44.44 0 01.285.12l5.046 5.352a.43.43 0 01.08.44m.71-9.038c-1.412-4.478-6.32-4.71-7.305-4.71-1.274 0-7.553.357-7.68 7.311C1.738 9.792 0 11.012 0 14.148c0 3.825 2.615 5.197 5.076 5.197l3.018-.02v2.446c0 .508.434.915.958.915h5.51c.52 0 .957-.407.957-.904v-2.498l1.896-.01c1.035 0 6.209-.306 6.209-6.296 0-5.237-3.94-6.12-5.637-6.255" fill="#5CB615" fill-rule="nonzero"/></svg>
